X:1
T:Kuhlaender Halbdreher
R:Halbdreher
A:Deutschland
%%textfont Helvetica-Narrow 10pt
%%begintext align
B:"Das kleine dicke Liederbuch", Heide Buhmann, Hanspeter Haeseler, 5.Auflage, eigenverlag, Schluechtern 1989
N:dort ganz in G, einstimmig mit harmonie-buchstaben, seite 213 
%%endtext
F:http://simonwascher.info
Z:abc transcription Simon Wascher
M:2/4
L:1/8
K:G
{E} ||\
G>A BB | A>B cc | B2 c2 | d2 zD |
G>A BB | A>B cc | d2 F2 | G2 z2 :|
|: \
AF/A/ .d.B | AF/A/ .d.B | "_>"A2 "_>"G2 | "_>"F2 z2 |
AF/A/ .d.B | AF/A/ .d.f | "_>"e2 "_>"^c2 | d=c BA :|
%%wordsfont Times-Italic 11pt
W:aus Simon Waschers TradArchiv
